X:12708
T:Paddy Wack. JC.081
M:6/8
L:1/8
Q:180
S:John Clare,Poet,Helpston. (1793-1864)
R:Jig
O:England
A:Northamptonshire
N:MR. qu rest added to 1st double bar lines.Bar 16, the last note is
N:dotted crot in MS.
Z:P Headford
K:G
D|GBd gfg|edc BAG|GBd gfg|fdd def|!
gfg fdB|cec dBG|GBd cAc|BGG G2:|!
|:z|BBB ccc|dBGA2G|Bcd efg|fdd def|!
gfg fdB|cec dBG|GBd cAc|BGGG2:|]
W:Song text exists,(or not). See Deacon.
